match-match-game/assets/images/logo.svg

<svg width="80" height="42" viewBox="0 0 80 42" fill="none" xmlns="http://www.w3.org/2000/svg">
<rect width="80" height="20" fill="#2196F3"/>
<rect y="19" width="80" height="20" fill="white"/>
<g filter="url(#filter0_d)">
<path d="M21.0806 5.17969L23.3364 11.1738L25.5869 5.17969H27.3433V13H25.9897V10.4219L26.124 6.97363L23.8145 13H22.8423L20.5381 6.979L20.6724 10.4219V13H19.3188V5.17969H21.0806ZM34.6787 11.1792H31.6494L31.0156 13H29.603L32.5571 5.17969H33.7764L36.7358 13H35.3179L34.6787 11.1792ZM32.0308 10.0835H34.2974L33.1641 6.83936L32.0308 10.0835ZM43.8833 6.27539H41.4448V13H40.0967V6.27539H37.6797V5.17969H43.8833V6.27539ZM51.9814 10.4541C51.9027 11.2884 51.5947 11.9401 51.0576 12.4092C50.5205 12.8747 49.8062 13.1074 48.9146 13.1074C48.2915 13.1074 47.7419 12.9606 47.2656 12.667C46.793 12.3698 46.4277 11.9491 46.1699 11.4048C45.9121 10.8605 45.7778 10.2285 45.7671 9.50879V8.77832C45.7671 8.04069 45.8978 7.39079 46.1592 6.82861C46.4206 6.26644 46.7948 5.83317 47.2817 5.52881C47.7723 5.22445 48.3381 5.07227 48.979 5.07227C49.842 5.07227 50.5366 5.3068 51.063 5.77588C51.5894 6.24495 51.8955 6.90739 51.9814 7.76318H50.6279C50.5635 7.20101 50.3988 6.79639 50.1338 6.54932C49.8724 6.29867 49.4875 6.17334 48.979 6.17334C48.3882 6.17334 47.9334 6.38997 47.6147 6.82324C47.2996 7.25293 47.1385 7.88493 47.1313 8.71924V9.41211C47.1313 10.2572 47.2817 10.9017 47.5825 11.3457C47.8869 11.7897 48.3309 12.0117 48.9146 12.0117C49.4481 12.0117 49.8491 11.8918 50.1177 11.6519C50.3862 11.4119 50.5563 11.0127 50.6279 10.4541H51.9814ZM60.6597 13H59.3062V9.5249H55.8096V13H54.4507V5.17969H55.8096V8.43457H59.3062V5.17969H60.6597V13Z" fill="white"/>
</g>
<g filter="url(#filter1_d)">
<path d="M21.0806 25.1797L23.3364 31.1738L25.5869 25.1797H27.3433V33H25.9897V30.4219L26.124 26.9736L23.8145 33H22.8423L20.5381 26.979L20.6724 30.4219V33H19.3188V25.1797H21.0806ZM34.6787 31.1792H31.6494L31.0156 33H29.603L32.5571 25.1797H33.7764L36.7358 33H35.3179L34.6787 31.1792ZM32.0308 30.0835H34.2974L33.1641 26.8394L32.0308 30.0835ZM43.8833 26.2754H41.4448V33H40.0967V26.2754H37.6797V25.1797H43.8833V26.2754ZM51.9814 30.4541C51.9027 31.2884 51.5947 31.9401 51.0576 32.4092C50.5205 32.8747 49.8062 33.1074 48.9146 33.1074C48.2915 33.1074 47.7419 32.9606 47.2656 32.667C46.793 32.3698 46.4277 31.9491 46.1699 31.4048C45.9121 30.8605 45.7778 30.2285 45.7671 29.5088V28.7783C45.7671 28.0407 45.8978 27.3908 46.1592 26.8286C46.4206 26.2664 46.7948 25.8332 47.2817 25.5288C47.7723 25.2244 48.3381 25.0723 48.979 25.0723C49.842 25.0723 50.5366 25.3068 51.063 25.7759C51.5894 26.245 51.8955 26.9074 51.9814 27.7632H50.6279C50.5635 27.201 50.3988 26.7964 50.1338 26.5493C49.8724 26.2987 49.4875 26.1733 48.979 26.1733C48.3882 26.1733 47.9334 26.39 47.6147 26.8232C47.2996 27.2529 47.1385 27.8849 47.1313 28.7192V29.4121C47.1313 30.2572 47.2817 30.9017 47.5825 31.3457C47.8869 31.7897 48.3309 32.0117 48.9146 32.0117C49.4481 32.0117 49.8491 31.8918 50.1177 31.6519C50.3862 31.4119 50.5563 31.0127 50.6279 30.4541H51.9814ZM60.6597 33H59.3062V29.5249H55.8096V33H54.4507V25.1797H55.8096V28.4346H59.3062V25.1797H60.6597V33Z" fill="#2196F3"/>
</g>
<defs>
<filter id="filter0_d" x="15.3188" y="5.07227" width="49.3408" height="16.0352" filterUnits="userSpaceOnUse" color-interpolation-filters="sRGB">
<feFlood flood-opacity="0" result="BackgroundImageFix"/>
<feColorMatrix in="SourceAlpha" type="matrix" values="0 0 0 0 0 0 0 0 0 0 0 0 0 0 0 0 0 0 127 0"/>
<feOffset dy="4"/>
<feGaussianBlur stdDeviation="2"/>
<feColorMatrix type="matrix" values="0 0 0 0 0 0 0 0 0 0 0 0 0 0 0 0 0 0 0.25 0"/>
<feBlend mode="normal" in2="BackgroundImageFix" result="effect1_dropShadow"/>
<feBlend mode="normal" in="SourceGraphic" in2="effect1_dropShadow" result="shape"/>
</filter>
<filter id="filter1_d" x="15.3188" y="25.0723" width="49.3408" height="16.0352" filterUnits="userSpaceOnUse" color-interpolation-filters="sRGB">
<feFlood flood-opacity="0" result="BackgroundImageFix"/>
<feColorMatrix in="SourceAlpha" type="matrix" values="0 0 0 0 0 0 0 0 0 0 0 0 0 0 0 0 0 0 127 0"/>
<feOffset dy="4"/>
<feGaussianBlur stdDeviation="2"/>
<feColorMatrix type="matrix" values="0 0 0 0 0 0 0 0 0 0 0 0 0 0 0 0 0 0 0.25 0"/>
<feBlend mode="normal" in2="BackgroundImageFix" result="effect1_dropShadow"/>
<feBlend mode="normal" in="SourceGraphic" in2="effect1_dropShadow" result="shape"/>
</filter>
</defs>
</svg>

<svg width="80" height="42" fill="none" xmlns="http://www.w3.org/2000/svg"><path fill="#2196F3" d="M0 0h80v20H0z"/><path fill="#fff" d="M0 19h80v20H0z"/><g filter="url(#filter0_d)"><path d="M21.08 5.18l2.256 5.994 2.25-5.994h1.757V13H25.99v-2.578l.134-3.448L23.814 13h-.972l-2.304-6.021.134 3.443V13H19.32V5.18h1.762zm13.599 6h-3.03L31.016 13h-1.413l2.954-7.82h1.22L36.735 13h-1.418l-.64-1.82zm-2.648-1.096h2.266l-1.133-3.245-1.133 3.245zm11.852-3.809h-2.438V13h-1.348V6.275H37.68V5.18h6.203v1.095zm8.098 4.18c-.078.833-.386 1.485-.923 1.954-.538.466-1.252.698-2.143.698-.623 0-1.173-.146-1.65-.44a2.932 2.932 0 01-1.095-1.262c-.258-.544-.392-1.176-.403-1.896v-.73c0-.738.13-1.388.392-1.95a2.961 2.961 0 011.123-1.3c.49-.305 1.056-.457 1.697-.457.863 0 1.558.235 2.084.704s.832 1.131.918 1.987h-1.353c-.065-.562-.23-.967-.494-1.214-.262-.25-.647-.376-1.155-.376-.59 0-1.046.217-1.364.65-.315.43-.477 1.062-.484 1.896v.693c0 .845.15 1.49.452 1.934.304.444.748.666 1.332.666.533 0 .934-.12 1.203-.36.268-.24.438-.64.51-1.198h1.353zM60.66 13h-1.354V9.525H55.81V13h-1.36V5.18h1.36v3.255h3.496V5.18h1.354V13z" fill="#fff"/></g><g filter="url(#filter1_d)"><path d="M21.08 25.18l2.256 5.994 2.25-5.994h1.757V33H25.99v-2.578l.134-3.448L23.814 33h-.972l-2.304-6.021.134 3.443V33H19.32v-7.82h1.762zm13.599 6h-3.03L31.016 33h-1.413l2.954-7.82h1.22L36.735 33h-1.418l-.64-1.82zm-2.648-1.096h2.266l-1.133-3.245-1.133 3.245zm11.852-3.809h-2.438V33h-1.348v-6.725H37.68V25.18h6.203v1.095zm8.098 4.18c-.078.833-.386 1.485-.923 1.954-.538.466-1.252.698-2.143.698-.623 0-1.173-.146-1.65-.44a2.932 2.932 0 01-1.095-1.262c-.258-.545-.392-1.177-.403-1.896v-.73c0-.738.13-1.388.392-1.95a2.961 2.961 0 011.123-1.3c.49-.305 1.056-.457 1.697-.457.863 0 1.558.235 2.084.704s.832 1.131.918 1.987h-1.353c-.065-.562-.23-.967-.494-1.214-.262-.25-.647-.376-1.155-.376-.59 0-1.046.217-1.364.65-.315.43-.477 1.062-.484 1.896v.693c0 .845.15 1.49.452 1.934.304.444.748.666 1.332.666.533 0 .934-.12 1.203-.36.268-.24.438-.64.51-1.198h1.353zM60.66 33h-1.354v-3.475H55.81V33h-1.36v-7.82h1.36v3.255h3.496V25.18h1.354V33z" fill="#2196F3"/></g><defs><filter id="filter0_d" x="15.319" y="5.072" width="49.341" height="16.035" filterUnits="userSpaceOnUse" color-interpolation-filters="sRGB"><feFlood flood-opacity="0" result="BackgroundImageFix"/><feColorMatrix in="SourceAlpha" values="0 0 0 0 0 0 0 0 0 0 0 0 0 0 0 0 0 0 127 0"/><feOffset dy="4"/><feGaussianBlur stdDeviation="2"/><feColorMatrix values="0 0 0 0 0 0 0 0 0 0 0 0 0 0 0 0 0 0 0.25 0"/><feBlend in2="BackgroundImageFix" result="effect1_dropShadow"/><feBlend in="SourceGraphic" in2="effect1_dropShadow" result="shape"/></filter><filter id="filter1_d" x="15.319" y="25.072" width="49.341" height="16.035" filterUnits="userSpaceOnUse" color-interpolation-filters="sRGB"><feFlood flood-opacity="0" result="BackgroundImageFix"/><feColorMatrix in="SourceAlpha" values="0 0 0 0 0 0 0 0 0 0 0 0 0 0 0 0 0 0 127 0"/><feOffset dy="4"/><feGaussianBlur stdDeviation="2"/><feColorMatrix values="0 0 0 0 0 0 0 0 0 0 0 0 0 0 0 0 0 0 0.25 0"/><feBlend in2="BackgroundImageFix" result="effect1_dropShadow"/><feBlend in="SourceGraphic" in2="effect1_dropShadow" result="shape"/></filter></defs></svg>
